!!!!SEGMENT: pl-kk--kk-i-389--006-007_anonim--missa-no-6-agnus.krn
!!!cenid: 17xx:2497
!!!COM: Anonim
!!!COM-rismID: pe30004985
!!!CDT:
!!!CNT:
!!!OPR: [Missa] No. 6.
!!!OTL: Agnus
!!!OMV: 007
!!!PDT:
!!!AGN: Sacred; Mass
!!!YEC: Copyright 2022 Narodowy Instytut Fryderyka Chopina (https://polishscores.org)
!!!YEM: License CC-BY-4.0 (https://creativecommons.org/licenses/by/4.0)
!!!SMS-siglum: PL-Kk
!!!SMS-shelfmark: Kk.I.389
!!!SMS-variant:
!!!SMS-altvar:
!!!SMS-shelfwork: 006-007 M
!!!NIFC-rismSourceID: 1001146182
!!!NIFC-rismChildID: 1001147228
!!!NIFC-islandoraID: pl-kk:6976
!!!URL-pdf-islandora: https://repozytorium.nifc.pl/islandora/object/pl-kk%3A6976/datastream/PDF/view
!!!URL-scan: https://polish.musicsources.pl/pl/lokalizacje/galeria/rekopisy/5999/1 @EN{Scan on Polish Music Sources Website} @PL{Skany w portalu Dziedzictwo Muzyki Polskiej w otwartym dostępie}
!!!IIIF:
!!!ONB-nifc: UWAGA: S – skan 10-12, A – 29-31 , T – 48-49 , B – 67-69 . Części Mszy: Rorate, Kyrie, Gloria, Graduale, Sanctus, Benedictus, Agnus, Dona.
!!!AIN: 1 alto 1 bass 1 soprn 1 tenor
!!!key: a
**kern	**text	**kern	**text	**kern	**text	**kern	**text
*part4	*part4	*part3	*part3	*part2	*part2	*part1	*part1
*staff4	*staff4	*staff3	*staff3	*staff2	*staff2	*staff1	*staff1
*I"Basso.	*	*I"Tenore.	*	*I"Alto.	*	*I"Soprano.	*
*I'B	*	*I'T	*	*I'A	*	*I'S	*
*ICvox	*	*ICvox	*	*ICvox	*	*ICvox	*
*Ibass	*	*Itenor	*	*Ialto	*	*Isoprn	*
*clefF4	*	*clefC4	*	*clefC3	*	*clefC1	*
*k[b-]	*	*k[b-]	*	*k[b-]	*	*k[b-]	*
*a:	*	*a:	*	*a:	*	*a:	*
*M3/2	*	*M3/2	*	*M3/2	*	*M3/2	*
=1	=1	=1	=1	=1	=1	=1	=1
*	*	*	*	*2\right	*	*	*
*	*	*	*	*all\rihgt	*	*	*
!LO:TX:a:t=P:problem:wszystkie caudy z prawej strony	!	!LO:TX:a:t=P:problem:wszystkie caudy z prawej strony	!	!LO:TX:a:t=P:problem:wszystkie caudy z prawej strony	!	!LO:TX:a:t=P:problem:wszystkie caudy z prawej strony	!
!	!	!	!	!LO:TX:t=P:problem:2\right:global	!	!	!
1D	A-	1A	A-	2d\	A-	2f/	A-
.	.	.	.	2f\	.	2a/	.
*	*	*2\right	*	*	*	*	*
*	*	*all\right	*	*	*	*	*
!	!	!LO:TX:t=P:problem:2\right:global	!	!	!	!	!
2C#X/	-gnus	2B-X\	-gnus	2e\	-gnus	2g/	-gnus
=2	=2	=2	=2	=2	=2	=2	=2
*2\right	*	*	*	*	*	*	*
*all\right	*	*	*	*	*	*	*
!LO:TX:t=P:problem:2\right:global	!	!	!	!	!	!	!
2D\	De-	2A\	De-	4d\	De-	4f/	De-
.	.	.	.	4c#X\	-i	4e/	.
2D\	-i	2A\	-i	2d\	.	2f/	-i
!	!	!	!	!	!	!LO:TX:t=P:problem:2\right:global	!
*	*	*	*	*	*	*2\right	*
2D\	qui	2A\	qui	2f\	qui	2a\	qui
=3	=3	=3	=3	=3	=3	=3	=3
2D\	tol-	2A\	tol-	4f\	tol-	4a\	tol-
.	.	.	.	4e\	.	4g\	.
4D\	-lis	4A\	-lis	4g\	-lis	4b-\	-lis
4F\	pec-	4d\	pec-	4f\	pec-	4a\	pec-
4G\	-ca-	4c#X\	-ca-	4e\	-ca-	4g\	-ca-
4G#X\	-ta	4Bn\	-ta	4d\	-ta	4f\	-ta
=4	=4	=4	=4	=4	=4	=4	=4
2A\	mun-	2A\	mun-	2d\	mun-	2f/	mun-
2AA/	-di	2A\	-di	2c#X\	-di,	2e/	-di
2r	.	2r	.	2r	.	2r	.
=5	=5	=5	=5	=5	=5	=5	=5
2F\	A-	2c\	A-	1f	A-	2a\	A-
2A\	.	2A\	.	.	.	2cc\	.
2B-\	-gnus	2F/	-gnus	2f\	-gnus	2dd\	-gnus
!LO:LB:g=original	!	!LO:LB:g=original	!	!LO:LB:g=original	!	!	!
=6	=6	=6	=6	=6	=6	=6	=6
2A\	De-	1c	De-	2f\	De-	2cc\	De-
2G\	.	.	.	2e\	.	2b-\	.
4F\	-i	4c\	-i	4f\	-i	4a\	-i
4F\	qui	4c\	qui	4f\	qui	4a\	qui
=7	=7	=7	=7	=7	=7	=7	=7
4B-\	tol-	2B-\	tol-	2d\	tol-	4dd\	tol-
4A\	.	.	.	.	.	4cc\	.
!	!	!	!	!	!	!LO:LB:g=original	!
4B-\	-lis	4B-\	-lis	4d\	-lis	4dd\	-lis
4A\	pec-	4B-\	pec-	4d\	pec-	4cc\	pec-
4G\	-ca-	4B-\	-ca-	4g\	-ca-	4b-\	-ca-
4F\	-ta	4Bn\	-ta	4f\	-ta	4a\	-ta
=8	=8	=8	=8	=8	=8	=8	=8
2c\	mun-	2c\	mun-	2f\	mun-	2a\	mun-
2C/	-di	2c\	-di	2e\	-di	2g\	-di
2r	.	2r	.	2r	.	2r	.
=9	=9	=9	=9	=9	=9	=9	=9
4C#X\	mi-	1B-X	mi-	1g	mi-	1ee	mi-
4E\	.	.	.	.	.	.	.
4G\	.	.	.	.	.	.	.
4E\	.	.	.	.	.	.	.
4C#\	.	2B-\	-se-	2g\	-se-	2ee\	-se-
4E\	-se-	.	.	.	.	.	.
=10	=10	=10	=10	=10	=10	=10	=10
2D\	-re-	2A\	-re-	2a\	-re-	2ff\	-re-
2E\	.	2c#X\	.	2g\	.	2ee\	.
2F\	-re	2A\	-re	2f\	-re	2dd\	-re
!LO:LB:g=original	!	!	!	!	!	!	!
=11	=11	=11	=11	=11	=11	=11	=11
2G\	no-	2B-\	no-	2g\	no-	2ee\	no-
2A\	.	1A	.	2f\	.	2dd\	.
2AA/	.	.	.	2e\	.	2cc#X\	.
=12	=12	=12	=12	=12	=12	=12	=12
!	!	!LO:TX:t=P:problem:pojedyncza kreska taktowa	!	!	!	!	!
1.BB-;	-bis.	1.B-;	-bis	1f	-bis.	1dd	bis,
.	.	.	.	2r;	.	2r	.
!	!	!LO:LB:g=original	!	!LO:LB:g=original	!	!	!
=13||	=13||	=13||	=13||	=13||	=13||	=13||	=13||
4C#X\	mi-	1B-	mi-	1g	mi-	1ee	mi-
4E\	.	.	.	.	.	.	.
4G\	.	.	.	.	.	.	.
4E\	.	.	.	.	.	.	.
4C#\	-se-	2B-\	-se-	2g\	-se-	2ee\	-se-
4E\	.	.	.	.	.	.	.
!	!	!	!	!	!	!LO:LB:g=original	!
=14	=14	=14	=14	=14	=14	=14	=14
2D\	-re-	2A\	-re-	2a\	-re-	2ff\	-re-
2E\	.	2c#X\	.	2g\	.	2ee\	.
2F\	-re	2A\	-re	2f\	-re	2dd\	-re
=15	=15	=15	=15	=15	=15	=15	=15
2G\	no-	2B-X\	no-	2g\	no-	2ee\	no-
2A\	.	1A	.	2f\	.	2dd\	.
2AA/	.	.	.	2e\	.	2cc#X\	.
=16	=16	=16	=16	=16	=16	=16	=16
1D	-bis.	1A	-bis,	1.f	-bis.	1.dd	-bis,
!LO:TX:a:i:t=Volti.	!	!	!	!	!	!	!
2r	.	2r	.	.	.	.	.
!LO:PB:g=original	!	!LO:LB:g=original	!	!	!	!	!
=17||	=17||	=17||	=17||	=17||	=17||	=17||	=17||
*M2/2	*	*M2/2	*	*M2/2	*	*M2/2	*
*met(c|)	*	*met(c|)	*	*met(c|)	*	*met(c|)	*
2D\	A-	2d\	A-	2a\	A-	2ff\	A-
2A\	-gnus	2c#X\	-gnus	2g\	-gnus	2ee\	-gnus
=18	=18	=18	=18	=18	=18	=18	=18
4F\	De-	2A\	De-	4f\	De-	4dd\	De-
4E\	.	.	.	4g\	.	4cc#X\	.
4D\	-i	4A\	-i	4f\	-i	4dd\	-i
4A\	qui	4A\	qui	4e\	qui	4cc#\	qui
=19	=19	=19	=19	=19	=19	=19	=19
4F\	tol-	2A\	tol-	4a\	tol-	4dd\	tol-
4E\	.	.	.	4g\	.	4cc#X\	.
4D\	-lis	4A\	-lis	4f\	-lis	4dd\	-lis
4C#X/	pec-	4A\	pec-	4g\	pec-	4ee\	pec-
=20	=20	=20	=20	=20	=20	=20	=20
4D\	-ca-	2A\	-ca-	4a\	-ca-	4ff\	-ca-
4E\	.	.	.	4g\	.	4ee\	.
4F\	.	2A\	-ta	4f\	-ta	4dd\	.
4G\	-ta	.	.	4g\	.	4ee\	-ta
=21	=21	=21	=21	=21	=21	=21	=21
4A\	mun-	1A	mun-	1f	mun-	1dd	mun-
4F\	.	.	.	.	.	.	.
4E\	.	.	.	.	.	.	.
4D\	.	.	.	.	.	.	.
=22	=22	=22	=22	=22	=22	=22	=22
1AA;	-di.	1A	-di.	1e	-di.	1cc#X;	-di,
==	==	==	==	==	==	==	==
*-	*-	*-	*-	*-	*-	*-	*-
!!!system-decoration: [(s1,s2,s3,s4)]
!!!ENC: Filip Voros
!!!END: 2023-11-09
!!!ENC: Leszek Kubiak
!!!END: 2023-12-12
